X:324
T: EWIGER GOTT ACH VATER MEIN
N: E0937
O: Europa, Mitteleuropa, Deutschland
R: Tanz - Lied, Reigen, geistlich
M: 3/4
L: 1/8
K: F
F2 | F4F2 | E3FG2 | F2D4 | C4
F2 | F2D4 | C4
C2 | G4G2 | A2A2G2 | F2E2D2 | E4z2
C2D2E2 | F4z2 | C2D2E2 | F4

